src/assets/img/svg/doodle9.svg

<svg width="206" height="214" viewBox="0 0 206 214" fill="none" xmlns="http://www.w3.org/2000/svg">
<g clip-path="url(#clip0_106_19)">
<path d="M32.6295 128.891C33.6655 127.777 34.7809 126.676 35.9149 125.653C36.2675 125.339 36.7899 125.367 37.1024 125.719C37.4148 126.07 37.3855 126.593 37.0329 126.907C35.3929 128.375 33.8367 129.983 32.4243 131.633C32.1206 131.993 31.6004 132.028 31.2423 131.726C30.8994 131.407 30.8503 130.903 31.1539 130.544C31.6403 129.988 32.1268 129.432 32.6295 128.891ZM27.1832 135.894C27.4574 135.599 27.9134 135.535 28.253 135.759C28.6406 135.997 28.7538 136.53 28.4981 136.903C27.3436 138.701 26.2414 140.64 25.2687 142.668C25.0619 143.087 24.5624 143.264 24.1444 143.058C23.7264 142.853 23.5511 142.354 23.7578 141.935C24.7915 139.841 25.8915 137.84 27.0918 135.992C27.1222 135.96 27.1527 135.927 27.1984 135.878L27.1832 135.894ZM41.1462 121.566C41.1462 121.566 41.2224 121.484 41.2681 121.435C43.1356 120.147 45.1022 118.982 47.121 117.957C47.5248 117.752 48.0363 117.922 48.2399 118.326C48.4435 118.729 48.2717 119.241 47.8679 119.446C45.9111 120.437 44.0066 121.568 42.2011 122.822C41.8147 123.074 41.2901 122.983 41.0397 122.598C40.8231 122.274 40.8557 121.846 41.1299 121.551L41.1462 121.566ZM21.311 147.939C21.5243 147.71 21.8682 147.602 22.2045 147.731C22.6366 147.889 22.874 148.354 22.7152 148.787C21.9819 150.885 21.376 153.01 20.8964 155.13C20.7854 155.577 20.3534 155.878 19.9071 155.768C19.4608 155.659 19.1767 155.211 19.2724 154.781C19.7499 152.598 20.4004 150.392 21.1478 148.246C21.1913 148.133 21.2511 148.036 21.3273 147.954L21.311 147.939ZM53.0883 115.502C53.1798 115.404 53.2875 115.321 53.4126 115.284C55.2552 114.645 57.1642 114.099 59.0612 113.663C59.3594 113.604 59.6729 113.529 59.9711 113.47C60.4261 113.374 60.8625 113.658 60.9573 114.113C61.0521 114.567 60.767 115.005 60.312 115.101C60.0138 115.16 59.7319 115.234 59.4337 115.293C57.5835 115.711 55.7529 116.238 53.9571 116.86C53.5196 117.003 53.0537 116.783 52.8806 116.348C52.775 116.035 52.8587 115.716 53.0568 115.503L53.0883 115.502ZM107.053 57.5353C108.104 56.4049 109.188 55.3048 110.258 54.2526C110.594 53.9238 111.132 53.935 111.443 54.255C111.771 54.5903 111.758 55.1281 111.437 55.4406C109.877 56.9539 108.307 58.6098 106.847 60.2457C106.542 60.5734 106.022 60.609 105.679 60.2901C105.336 59.9712 105.302 59.451 105.622 59.1069C106.11 58.5826 106.596 58.0268 107.099 57.4862L107.053 57.5353ZM101.314 64.2964C101.603 63.9852 102.107 63.9344 102.433 64.2065C102.806 64.4926 102.872 65.0117 102.584 65.3861C101.269 67.0956 99.94 68.8845 98.6462 70.767C98.3905 71.1402 97.8572 71.2553 97.4686 70.9856C97.0963 70.7311 96.983 70.198 97.254 69.8084C98.563 67.9096 99.9058 66.0726 101.237 64.3468C101.252 64.3304 101.267 64.314 101.282 64.2976L101.314 64.2964ZM115.24 49.8119C115.24 49.8119 115.286 49.7628 115.316 49.73C117.083 48.2879 118.916 46.9065 120.738 45.6677C121.124 45.416 121.649 45.5067 121.899 45.8923C122.15 46.2779 122.057 46.8029 121.671 47.0547C119.864 48.2771 118.077 49.6093 116.357 51.0339C115.988 51.3324 115.464 51.2732 115.184 50.9204C114.919 50.5828 114.951 50.1232 115.225 49.8283L115.24 49.8119ZM93.6849 75.3492C93.9591 75.0543 94.3836 74.9907 94.7385 75.1985C95.126 75.4367 95.2545 75.9533 94.9999 76.3581C94.1914 77.6532 93.4591 78.8664 92.7855 79.9508C92.3666 80.6306 91.9335 81.3582 91.5005 82.0859C91.2611 82.4743 90.7441 82.6045 90.3566 82.3664C89.9691 82.1282 89.8406 81.6116 90.08 81.2232C90.513 80.4955 90.9624 79.783 91.365 79.0882C92.0386 78.0037 92.7709 76.7905 93.5946 75.479C93.6251 75.4463 93.6708 75.3971 93.7012 75.3644L93.6849 75.3492ZM126.342 42.2939C126.342 42.2939 126.463 42.1629 126.557 42.1277C128.542 41.0408 130.594 40.0462 132.665 39.1615C133.101 38.9868 133.582 39.1898 133.771 39.6094C133.959 40.029 133.739 40.5272 133.319 40.7171C131.31 41.5678 129.305 42.5448 127.351 43.599C126.932 43.8203 126.437 43.6653 126.218 43.2785C126.033 42.9537 126.098 42.5561 126.342 42.2939V42.2939ZM86.8636 86.9086C87.1225 86.6301 87.5307 86.5513 87.8692 86.7439C88.272 86.9657 88.4473 87.4648 88.2242 87.8684C87.1111 89.9494 86.1993 91.9122 85.3975 93.855C85.2223 94.2726 84.7239 94.4812 84.307 94.3074C83.8901 94.1336 83.6832 93.6357 83.8584 93.2181C84.6896 91.211 85.6318 89.2154 86.7591 87.0864C86.8048 87.0372 86.8494 86.9565 86.8951 86.9074L86.8636 86.9086ZM18.4299 161.024C18.5975 160.844 18.8467 160.74 19.1319 160.76C19.5912 160.79 19.9374 161.204 19.8906 161.68C19.682 163.869 19.6171 166.1 19.7078 168.261C19.7242 168.735 19.3738 169.112 18.9003 169.13C18.4269 169.148 18.0513 168.798 18.0349 168.325C17.9573 166.084 18.02 163.79 18.2417 161.521C18.2667 161.331 18.3396 161.154 18.4615 161.023L18.4299 161.024ZM66.2054 112.791C66.3425 112.644 66.5286 112.542 66.7496 112.533C68.9873 112.353 71.2773 112.314 73.5564 112.417C74.0158 112.447 74.3608 112.829 74.3609 113.287C74.3294 113.747 73.9464 114.093 73.4881 114.095C71.2885 114.004 69.0616 114.042 66.887 114.219C66.4298 114.252 66.0227 113.904 65.9911 113.447C65.9671 113.211 66.0541 112.986 66.2217 112.806L66.2054 112.791ZM138.677 37.0839C138.768 36.9856 138.908 36.9013 139.048 36.8486C141.175 36.1988 143.368 35.6413 145.549 35.195L145.627 35.1762C146.082 35.0799 146.52 35.3951 146.598 35.8347C146.693 36.2894 146.376 36.7282 145.936 36.8081L145.873 36.8105C143.739 37.2393 141.593 37.7792 139.529 38.4265C139.092 38.5696 138.625 38.3186 138.483 37.8815C138.394 37.5846 138.478 37.2653 138.66 37.0687L138.677 37.0839ZM81.7936 99.3023C82.0069 99.0729 82.3192 98.9662 82.6229 99.0653C83.0539 99.1912 83.3228 99.6551 83.1956 100.087C82.5897 102.212 82.1275 104.379 81.823 106.54C81.76 107 81.3443 107.316 80.8839 107.255C80.4235 107.193 80.1088 106.779 80.1719 106.318C80.4904 104.109 80.9657 101.862 81.5847 99.6579C81.6118 99.5304 81.6869 99.417 81.7783 99.3187L81.7936 99.3023ZM18.924 174.376C19.0459 174.245 19.2004 174.144 19.4051 174.121C19.8611 174.056 20.2976 174.34 20.3771 174.811C20.6342 176.302 20.9708 177.807 21.3378 179.278C21.4641 179.732 21.1954 180.185 20.7415 180.313C20.2877 180.44 19.836 180.173 19.7096 179.72C19.2936 178.202 18.9712 176.65 18.7119 175.095C18.6553 174.829 18.7564 174.556 18.924 174.376V174.376ZM151.796 34.4361C151.933 34.2886 152.119 34.1867 152.324 34.1631C154.561 33.9517 156.832 33.8338 159.092 33.827C159.55 33.8254 159.926 34.2062 159.926 34.6645C159.927 35.1228 159.545 35.5008 159.086 35.5025C156.89 35.5069 154.65 35.6236 152.477 35.8326C152.004 35.8822 151.613 35.5493 151.565 35.077C151.541 34.8408 151.627 34.5847 151.78 34.4209L151.796 34.4361ZM79.8812 112.524C80.0336 112.36 80.2512 112.257 80.5037 112.248C80.9619 112.246 81.3386 112.627 81.3387 113.085C81.3409 113.148 81.3267 113.196 81.3289 113.26C83.2217 113.614 85.1015 114.049 86.9214 114.58C87.3687 114.721 87.6213 115.17 87.4788 115.618C87.3363 116.066 86.8868 116.32 86.4395 116.179C84.7632 115.689 83.0587 115.296 81.3401 114.95C81.3947 116.529 81.4973 118.121 81.6456 119.664C81.6935 120.136 81.3595 120.528 80.9034 120.593C80.4311 120.643 80.0403 120.31 79.9771 119.854C79.807 118.138 79.699 116.388 79.6388 114.651L79.6366 114.588C79.3928 114.392 79.2567 114.113 79.3241 113.778C79.3644 113.571 79.4841 113.377 79.6375 113.245C79.6353 113.182 79.6495 113.134 79.6473 113.071C79.6396 112.85 79.7278 112.657 79.8649 112.509L79.8812 112.524ZM165.116 34.3883C165.284 34.2081 165.533 34.1038 165.818 34.1246C168.037 34.3247 170.292 34.65 172.519 35.0711C172.981 35.1642 173.28 35.5954 173.186 36.0573C173.106 36.5028 172.659 36.8201 172.198 36.727C170.018 36.3199 167.811 36.0086 165.655 35.806C165.196 35.7761 164.865 35.3461 164.896 34.8866C164.921 34.696 164.994 34.5194 165.116 34.3883V34.3883ZM81.2417 125.796C81.3483 125.681 81.5029 125.58 81.6759 125.558C82.1309 125.462 82.5674 125.745 82.6774 126.184C83.1806 128.393 83.7915 130.519 84.5396 132.498C84.7127 132.934 84.4766 133.417 84.0554 133.575C83.619 133.75 83.1368 133.515 82.98 133.095C82.2134 131.038 81.5687 128.849 81.047 126.562C80.974 126.28 81.0752 126.008 81.258 125.811L81.2417 125.796ZM92.317 117.062C92.5455 116.816 92.9373 116.722 93.2584 116.868C94.0443 117.202 94.8313 117.567 95.5867 117.933C96.857 118.565 98.0968 119.229 99.3061 119.926C99.6937 120.164 99.8374 120.664 99.5991 121.084C99.3597 121.472 98.8591 121.618 98.44 121.381C97.2786 120.698 96.0551 120.049 94.8327 119.432C94.0773 119.065 93.3382 118.714 92.5686 118.396C92.1354 118.207 91.9449 117.724 92.1353 117.29C92.1799 117.209 92.2245 117.129 92.3007 117.047L92.317 117.062ZM178.27 36.844C178.483 36.6146 178.795 36.5079 179.099 36.607C181.253 37.2048 183.411 37.8972 185.54 38.6856C185.972 38.843 186.194 39.3245 186.035 39.7573C185.876 40.19 185.394 40.4138 184.962 40.2564C182.881 39.482 180.771 38.8035 178.665 38.2198C178.234 38.0939 177.965 37.63 178.076 37.1833C178.103 37.0558 178.178 36.9423 178.27 36.844V36.844ZM85.9565 138.276C85.9565 138.276 86.0632 138.161 86.1568 138.126C86.5594 137.89 87.0699 138.028 87.3051 138.43C88.4471 140.378 89.7252 142.147 91.1371 143.674C91.4496 144.026 91.4203 144.548 91.0829 144.846C90.7303 145.159 90.2079 145.132 89.9118 144.795C88.4171 143.161 87.0574 141.316 85.8642 139.259C85.6791 138.935 85.728 138.522 85.9718 138.26L85.9565 138.276ZM103.788 123.849C104.077 123.537 104.581 123.487 104.907 123.759C105.865 124.497 106.76 125.269 107.593 126.043C108.426 126.818 109.196 127.594 109.903 128.405C110.216 128.757 110.186 129.279 109.834 129.593C109.481 129.907 108.959 129.879 108.646 129.528C107.972 128.779 107.219 128.017 106.435 127.288C105.652 126.559 104.772 125.803 103.847 125.095C103.473 124.809 103.423 124.273 103.695 123.915C103.71 123.899 103.726 123.883 103.741 123.866L103.788 123.849ZM190.82 41.4878C191.064 41.2257 191.455 41.1318 191.793 41.2928C193.849 42.2578 195.828 43.2731 197.81 44.3832C198.213 44.6049 198.341 45.1216 198.118 45.5252C197.895 45.9288 197.378 46.059 196.976 45.8373C195.025 44.726 193.11 43.7399 191.087 42.8053C190.669 42.5999 190.478 42.1172 190.685 41.6984C190.73 41.6177 190.774 41.537 190.835 41.4715L190.82 41.4878ZM95.0006 148C95.2748 147.705 95.7309 147.64 96.0705 147.864C97.9449 149.058 99.9673 149.961 101.912 150.456C102.359 150.565 102.628 151.029 102.517 151.476C102.406 151.923 101.941 152.193 101.495 152.084C99.3744 151.548 97.1757 150.572 95.1554 149.274C94.7678 149.036 94.6546 148.503 94.8939 148.115C94.9244 148.082 94.9549 148.049 95.0006 148V148ZM112.527 133.9C112.527 133.9 112.664 133.753 112.758 133.718C113.162 133.513 113.673 133.683 113.877 134.086C114.571 135.435 115.093 136.806 115.457 138.183C115.676 139.028 115.816 139.892 115.863 140.791C115.895 141.248 115.529 141.641 115.056 141.659C114.599 141.692 114.207 141.328 114.19 140.854C114.148 140.081 114.027 139.327 113.827 138.592C113.5 137.34 113.013 136.063 112.369 134.823C112.216 134.497 112.266 134.116 112.494 133.87L112.527 133.9ZM107.721 150.725C107.813 150.627 107.952 150.542 108.092 150.49C108.905 150.237 109.682 149.86 110.393 149.391C111.35 148.722 112.157 147.854 112.77 146.835C113.009 146.447 113.526 146.316 113.914 146.554C114.301 146.793 114.43 147.309 114.19 147.698C113.443 148.927 112.468 149.976 111.326 150.778C110.477 151.363 109.545 151.809 108.56 152.116C108.122 152.259 107.655 152.008 107.529 151.554C107.439 151.257 107.523 150.938 107.706 150.741L107.721 150.725Z" fill="#605DBA" stroke="#605DBA" stroke-miterlimit="10"/>
</g>
<defs>
<clipPath id="clip0_106_19">
<rect width="222.224" height="74.4292" fill="white" transform="translate(205.835 50.6846) rotate(132.92)"/>
</clipPath>
</defs>
</svg>

<svg width="206" height="214" viewBox="0 0 206 214" fill="none" xmlns="http://www.w3.org/2000/svg"><g clip-path="url(#clip0_106_19)"><path d="M32.63 128.891a53.114 53.114 0 013.285-3.238.832.832 0 011.187.066.834.834 0 01-.07 1.188 50.137 50.137 0 00-4.608 4.726.83.83 0 01-1.182.093c-.343-.319-.392-.823-.088-1.182a72.21 72.21 0 011.476-1.653zm-5.447 7.003a.839.839 0 011.07-.135c.388.238.5.771.245 1.144a53.747 53.747 0 00-3.23 5.765.84.84 0 11-1.51-.733c1.034-2.094 2.134-4.095 3.334-5.943l.106-.114-.015.016zm13.963-14.328l.122-.131a50.986 50.986 0 015.853-3.478.842.842 0 011.119.369.846.846 0 01-.372 1.12 47.863 47.863 0 00-5.667 3.376c-.386.252-.91.161-1.161-.224a.841.841 0 01.09-1.047l.016.015zm-19.835 26.373a.815.815 0 01.893-.208c.433.158.67.623.511 1.056a58.115 58.115 0 00-1.819 6.343c-.11.447-.543.748-.989.638-.446-.109-.73-.557-.635-.987.478-2.183 1.128-4.389 1.876-6.535a.896.896 0 01.18-.292l-.017-.015zm31.777-32.437a.747.747 0 01.325-.218 54.822 54.822 0 015.648-1.621c.298-.059.612-.134.91-.193a.825.825 0 01.986.643.83.83 0 01-.645.988c-.298.059-.58.133-.878.192-1.85.418-3.681.945-5.477 1.567a.864.864 0 01-1.076-.512.84.84 0 01.176-.845l.031-.001zm53.965-57.967c1.051-1.13 2.135-2.23 3.205-3.282a.843.843 0 011.185.002.843.843 0 01-.006 1.186 93.784 93.784 0 00-4.59 4.805.825.825 0 01-1.168.044.83.83 0 01-.057-1.183c.488-.524.974-1.08 1.477-1.62l-.046.048zm-5.739 6.761c.289-.31.793-.362 1.119-.09a.832.832 0 01.151 1.18 124.248 124.248 0 00-3.938 5.381.852.852 0 01-1.177.219.85.85 0 01-.215-1.178 127.057 127.057 0 013.983-5.461l.045-.05h.032zm13.926-14.484l.076-.082a78.22 78.22 0 015.422-4.062c.386-.252.911-.161 1.161.224a.842.842 0 01-.228 1.163 68.687 68.687 0 00-5.314 3.979.828.828 0 01-1.173-.114.838.838 0 01.041-1.092l.015-.016zM93.685 75.349a.837.837 0 011.053-.15.835.835 0 01.262 1.16c-.809 1.294-1.54 2.507-2.215 3.592a164 164 0 00-1.284 2.135.839.839 0 01-1.144.28.836.836 0 01-.277-1.143c.433-.727.882-1.44 1.285-2.135.674-1.084 1.406-2.297 2.23-3.609l.106-.115-.016-.015zm32.657-33.055s.121-.131.215-.166a70.072 70.072 0 016.108-2.967.858.858 0 011.106.448c.188.42-.032.918-.452 1.108a70.708 70.708 0 00-5.968 2.882.842.842 0 01-1.133-.32.839.839 0 01.124-.985v0zM86.864 86.909a.814.814 0 011.005-.165c.403.222.578.72.355 1.124a65.65 65.65 0 00-2.827 5.987.847.847 0 01-1.09.452.843.843 0 01-.449-1.089 71.152 71.152 0 012.901-6.132c.046-.049.09-.13.136-.179l-.031.002zM18.43 161.024a.862.862 0 01.702-.264.83.83 0 01.759.92 48.471 48.471 0 00-.183 6.581.826.826 0 01-.808.869.82.82 0 01-.865-.805 51.832 51.832 0 01.207-6.804.899.899 0 01.22-.498l-.032.001zm47.775-48.233a.782.782 0 01.545-.258 54.513 54.513 0 016.806-.116c.46.03.805.412.805.87a.87.87 0 01-.873.808 54.181 54.181 0 00-6.601.124.84.84 0 01-.896-.772.814.814 0 01.23-.641l-.016-.015zm72.472-75.707a1 1 0 01.371-.235 71.284 71.284 0 016.501-1.654l.078-.019a.823.823 0 01.971.659.83.83 0 01-.662.973l-.063.002c-2.134.43-4.28.97-6.344 1.616a.834.834 0 01-1.046-.544.859.859 0 01.177-.813l.017.015zM81.794 99.302c.213-.23.525-.336.829-.237.43.126.7.59.573 1.022a48.05 48.05 0 00-1.373 6.453.832.832 0 01-.94.715.825.825 0 01-.711-.937 52.434 52.434 0 011.413-6.66.736.736 0 01.193-.34l.016-.016zm-62.87 75.074a.76.76 0 01.481-.255c.456-.065.893.219.972.69a62.35 62.35 0 00.96 4.467.84.84 0 01-.596 1.035.834.834 0 01-1.031-.593 46.384 46.384 0 01-.998-4.625.827.827 0 01.212-.719v0zm132.872-139.94a.86.86 0 01.528-.273 74.525 74.525 0 016.768-.336.84.84 0 01.834.837.846.846 0 01-.84.838 71.067 71.067 0 00-6.609.33c-.473.05-.864-.283-.912-.755a.869.869 0 01.215-.656l.016.015zm-71.915 78.088a.881.881 0 01.623-.276.84.84 0 01.835.837c.002.063-.012.111-.01.175 1.893.354 3.773.789 5.592 1.32.448.141.7.59.558 1.038-.143.448-.592.702-1.04.561a61.21 61.21 0 00-5.099-1.229c.055 1.579.157 3.171.306 4.714a.849.849 0 01-.743.929.841.841 0 01-.926-.739 81.636 81.636 0 01-.338-5.203l-.002-.063c-.244-.196-.38-.475-.313-.81a.966.966 0 01.314-.533c-.003-.063.011-.111.01-.174a.78.78 0 01.217-.562l.016.015zm85.235-78.136a.86.86 0 01.702-.263c2.219.2 4.474.525 6.701.946a.833.833 0 01.667.986.844.844 0 01-.988.67 73.107 73.107 0 00-6.543-.921c-.459-.03-.79-.46-.759-.92a.898.898 0 01.22-.498v0zm-83.874 91.408a.741.741 0 01.434-.238.85.85 0 011.001.626c.504 2.209 1.114 4.335 1.863 6.314a.831.831 0 01-.485 1.077.827.827 0 01-1.075-.48 51.6 51.6 0 01-1.933-6.533c-.073-.282.028-.554.211-.751l-.016-.015zm11.075-8.734a.84.84 0 01.941-.194c.786.334 1.573.699 2.329 1.065 1.27.632 2.51 1.296 3.72 1.993a.852.852 0 01.292 1.158.856.856 0 01-1.159.297 64.38 64.38 0 00-3.607-1.949 40.958 40.958 0 00-2.264-1.036.828.828 0 01-.434-1.106 1.13 1.13 0 01.166-.243l.016.015zm85.953-80.218c.213-.23.525-.336.829-.237a80.794 80.794 0 016.441 2.079.835.835 0 01.495 1.071.84.84 0 01-1.073.5 77.226 77.226 0 00-6.297-2.037.87.87 0 01-.589-1.037.731.731 0 01.194-.339v0zM85.956 138.276s.107-.115.2-.15a.837.837 0 011.15.304c1.141 1.948 2.42 3.717 3.831 5.244a.826.826 0 01-.054 1.172.825.825 0 01-1.171-.051 31.878 31.878 0 01-4.048-5.536.858.858 0 01.108-.999l-.015.016zm17.832-14.427c.289-.312.793-.362 1.119-.09.958.738 1.853 1.51 2.686 2.284a31.584 31.584 0 012.31 2.362.834.834 0 01-.069 1.188.833.833 0 01-1.188-.065 35.77 35.77 0 00-2.211-2.24 35.579 35.579 0 00-2.588-2.193.848.848 0 01-.152-1.18l.046-.049.047-.017zm87.032-82.361a.839.839 0 01.973-.195 93.668 93.668 0 016.017 3.09c.403.222.531.739.308 1.142-.223.404-.74.534-1.142.312a76.982 76.982 0 00-5.889-3.032c-.418-.205-.609-.688-.402-1.107.045-.08.089-.161.15-.227l-.015.017zM95 148a.84.84 0 011.07-.136c1.875 1.194 3.897 2.097 5.842 2.592a.84.84 0 01.605 1.02.848.848 0 01-1.022.608c-2.12-.536-4.32-1.512-6.34-2.81-.387-.238-.5-.771-.261-1.159.03-.033.06-.066.107-.115v0zm17.527-14.1s.137-.147.231-.182a.843.843 0 011.119.368 20.268 20.268 0 011.58 4.097c.219.845.359 1.709.406 2.608.032.457-.334.85-.807.868-.457.033-.849-.331-.866-.805a10.828 10.828 0 00-.363-2.262 18.197 18.197 0 00-1.458-3.769c-.153-.326-.103-.707.125-.953l.033.03zm-4.806 16.825c.092-.098.231-.183.371-.235a9.119 9.119 0 002.301-1.099 8.375 8.375 0 002.377-2.556.84.84 0 011.144-.281.837.837 0 01.276 1.144 10.274 10.274 0 01-2.864 3.08 10.227 10.227 0 01-2.766 1.338.809.809 0 01-1.031-.562.854.854 0 01.177-.813l.015-.016z" fill="#605DBA" stroke="#605DBA" stroke-miterlimit="10"/></g><defs><clipPath id="clip0_106_19"><path fill="#fff" transform="rotate(132.92 91.877 70.178)" d="M0 0h222.224v74.429H0z"/></clipPath></defs></svg>
